lib/functional/system&devices/bell-z.svg

<svg xmlns="http://www.w3.org/2000/svg" fill="none" stroke="currentColor" aria-hidden="true" viewBox="0 0 32 32"><g id="Icon-BellZ"><g clip-path="url(#clip0_9_1536)"><g id="size=md (32px)"><g id="BellZ"><path id="Vector" stroke-linecap="round" stroke-linejoin="round" stroke-width="2" d="M7.0249 13C7.02323 11.8145 7.25613 10.6403 7.71018 9.54522C8.16423 8.45009 8.83046 7.45561 9.67049 6.61906C10.5105 5.78251 11.5078 5.12042 12.6048 4.67093C13.7018 4.22144 14.8769 3.99342 16.0624 4.00002C21.0124 4.03752 24.9749 8.15002 24.9749 13.1125V14C24.9749 18.475 25.9124 21.075 26.7374 22.5C26.825 22.6518 26.8712 22.8239 26.8714 22.9991C26.8715 23.1744 26.8256 23.3466 26.7383 23.4985C26.6509 23.6504 26.5252 23.7767 26.3737 23.8647C26.2221 23.9527 26.0501 23.9994 25.8749 24H6.1249C5.94966 23.9994 5.77766 23.9527 5.62613 23.8647C5.4746 23.7767 5.34886 23.6504 5.26151 23.4985C5.17416 23.3466 5.12826 23.1744 5.12842 22.9991C5.12857 22.8239 5.17478 22.6518 5.2624 22.5C6.0874 21.075 7.0249 18.475 7.0249 14V13Z"/><path id="Vector_2" stroke-linecap="round" stroke-linejoin="round" stroke-width="2" d="M12 24V25C12 26.0609 12.4214 27.0783 13.1716 27.8284C13.9217 28.5786 14.9391 29 16 29C17.0609 29 18.0783 28.5786 18.8284 27.8284C19.5786 27.0783 20 26.0609 20 25V24"/><path id="Vector_3" stroke-linecap="round" stroke-linejoin="round" stroke-width="2" d="M13.5 12H18.5L13.5 18H18.5"/></g></g></g></g><defs><clipPath id="clip0_9_1536"><rect width="32" height="32" fill="white" rx="5"/></clipPath></defs></svg>

<svg xmlns="http://www.w3.org/2000/svg" fill="none" stroke="currentColor" aria-hidden="true" viewBox="0 0 32 32"><g stroke="#101828" stroke-linecap="round" stroke-linejoin="round" stroke-width="2" clip-path="url(#a)"><path d="M7.025 13a8.987 8.987 0 0 1 9.037-9c4.95.038 8.913 4.15 8.913 9.113V14c0 4.475.937 7.075 1.762 8.5a1 1 0 0 1-.862 1.5H6.125a1 1 0 0 1-.863-1.5c.825-1.425 1.763-4.025 1.763-8.5v-1ZM12 24v1a4 4 0 1 0 8 0v-1"/><path d="M13.5 12h5l-5 6h5"/></g><defs><clipPath id="a"><rect width="32" height="32" fill="#fff" rx="5"/></clipPath></defs></svg>
